lib/svg/organization.svg

<svg xmlns="http://www.w3.org/2000/svg" width="16" height="16" viewBox="0 0 16 16"><path d="M16 12.999c0 .439-.45 1-1 1H7.995c-.539 0-.994-.447-.995-.999H1c-.54 0-1-.561-1-1 0-2.634 3-4 3-4s.229-.409 0-1c-.841-.621-1.058-.59-1-3 .058-2.419 1.367-3 2.5-3s2.442.58 2.5 3c.058 2.41-.159 2.379-1 3-.229.59 0 1 0 1s1.549.711 2.42 2.088C9.196 9.369 10 8.999 10 8.999s.229-.409 0-1c-.841-.62-1.058-.59-1-3 .058-2.419 1.367-3 2.5-3s2.437.581 2.495 3c.059 2.41-.158 2.38-1 3-.229.59 0 1 0 1s3.005 1.366 3.005 4"/></svg>

<?xml version="1.0" encoding="UTF-8" standalone="no"?>
<svg width="16px" height="16px" viewBox="0 0 16 16" version="1.1" xmlns="http://www.w3.org/2000/svg" xmlns:xlink="http://www.w3.org/1999/xlink">
    <!-- Generator: Sketch 3.8.3 (29802) - http://www.bohemiancoding.com/sketch -->
    <title>organization</title>
    <desc>Created with Sketch.</desc>
    <defs></defs>
    <g id="Octicons" stroke="none" stroke-width="1" fill="none" fill-rule="evenodd">
        <g id="organization" fill="#221F20">
            <path d="M16,12.999 C16,13.438 15.55,13.999 15,13.999 L7.995,13.999 C7.456,13.999 7.001,13.552 7,13 L1,13 C0.46,13 0,12.439 0,12 C0,9.366 3,8 3,8 C3,8 3.229,7.591 3,7 C2.159,6.379 1.942,6.41 2,4 C2.058,1.581 3.367,1 4.5,1 C5.633,1 6.942,1.58 7,4 C7.058,6.41 6.841,6.379 6,7 C5.771,7.59 6,8 6,8 C6,8 7.549,8.711 8.42,10.088 C9.196,9.369 10,8.999 10,8.999 C10,8.999 10.229,8.59 10,7.999 C9.159,7.379 8.942,7.409 9,4.999 C9.058,2.58 10.367,1.999 11.5,1.999 C12.633,1.999 13.937,2.58 13.995,4.999 C14.054,7.409 13.837,7.379 12.995,7.999 C12.766,8.589 12.995,8.999 12.995,8.999 C12.995,8.999 16,10.365 16,12.999" id="Shape"></path>
        </g>
    </g>
</svg>
